X:1
T:95
T:
I:linebreak !
L:1/4
K:Bbmaj
V:1 clef=treble
FEDF|G3 A/B/|FGAB|c2 e2-|e d/c/ d2-|d G c2-|c B/A/ B d| c2 F G|A c B A|G2 F G/A/|B4|
V:2 clef=treble
B4| D4 | C4 | G4 | F4 | E4 | D4 | F4 | E4 | C4 | B4 |
V:3 clef=bass
z2 B,2-|B,A,G,B,| A,2 F,2| E,F,G,A,| B,3 A,/B,/|C2 E,F,|G,3 G,,|A,,G,,A,,B,,|C,3 D,|E, D,/E,/ F, F,,|D,4|  
W:Con la combinación de dos melodías en quipta especie con un can{us
W:alcanzamos ya la culminación del estudio del contrapunto puro. Esta
W:combinación hace posible el uso de los eleJnentos de imjtación, tanto rít­
W:micos como melódicos, proporcionando una excelente oportunidad de in­
W:t r o duc i r esta importante técnica contrapuntística. Los próximos ejemplos
W:de esta combinación de especies
W:muestran algunas de las posibilidades(ejemplo 95).